src/assets/images/file-cleaner.svg

<svg width="15" height="15" viewBox="0 0 15 15" fill="none" xmlns="http://www.w3.org/2000/svg">
<path d="M14.9981 2.40805L13.5881 0.998047L7.99805 6.58805L2.40805 0.998047L0.998047 2.40805L6.58805 7.99805L0.998047 13.588L2.40805 14.998L7.99805 9.40805L13.5881 14.998L14.9981 13.588L9.40805 7.99805L14.9981 2.40805Z" fill="#BCBDC0"/>
</svg>

<svg width="15" height="15" fill="none" xmlns="http://www.w3.org/2000/svg"><path d="m14.998 2.408-1.41-1.41-5.59 5.59-5.59-5.59-1.41 1.41 5.59 5.59-5.59 5.59 1.41 1.41 5.59-5.59 5.59 5.59 1.41-1.41-5.59-5.59 5.59-5.59z" fill="#BCBDC0"/></svg>
